X: 630
T:Munster Buttermilk
R:single jig
N:Often played in G also
Z:Henrik Norbeck id:hn-slide-29
N:Posted to the woodenflute mailing list February 2003
M:6/8
K:D
dcd edB|A2F FEF|A2F FEF|AFE DFA|
dcd edB|A2F FEF|AFE DEF|1 E2E DFA:|2 E2E D2B||
|:A2B d2e|~f3 fed|~e3 edB|~d3 edB|
A2B d2e|~f3 fed|edB ABd|1 efe d2B:|2 efe d2A||

